media/theme/theme-5/line.svg

<svg fill="none" height="26" viewBox="0 0 159 26" width="159" xmlns="http://www.w3.org/2000/svg"><g fill="#000"><path d="m79.2017 7.08066c-1.5881.02953-2.7551.08859-2.7431.13781s.3369.18703.7219.315c1.0226.30516 1.6242.57094 1.937.85641l.2887.24609-.2887.1575c-.3128.16734-1.6242.34453-2.5266.35437-.8061 0-.8181.1575 0 .23625.9264.0886 1.8168.44297 2.3341.93521.4211.4035.8061 1.191.8302 1.6734 0 .1378.0481.3445.1082.4528.1203.2461.1925.1083.2888-.5709.1925-1.3191 1.3114-2.32316 2.9356-2.62832.3369-.0689.6256-.1575.6256-.20672s-.5895-.08859-1.3114-.08859c-.7098 0-1.4678-.04922-1.6843-.10828l-.385-.10828.2406-.21657c.2286-.19687 1.3836-.68906 2.695-1.13203.3248-.11812.5534-.24609.5053-.30515-.0361-.05907-.4452-.0886-.9384-.07875-.4813.00984-2.1055.04922-3.6335.07875z"/><path d="m85.4098 11.1362c-.8422.1181-1.3956.4922-1.8768 1.2698-.4452.7186-.8182 2.0574-.5655 2.0574.0481 0 .2647-.2166.4812-.4824.385-.4725 1.4678-1.3584 2.5747-2.1262.3128-.2166.5775-.4528.6016-.5316.0481-.187-.5535-.2854-1.2152-.187z"/><path d="m73.1861 11.3136c-.0602.0886.0962.2756.4933.5709 1.4798 1.1025 2.4543 1.9196 2.7792 2.3231.5895.7679.6737.5119.2647-.7382-.3249-.9844-.7821-1.575-1.4799-1.9097-.6376-.3052-1.9009-.4528-2.0573-.2461z"/><path d="m144.892 12.4554c-3.272.817-13.379 1.9786-23.16 2.648-1.42.0984-1.925.1673-1.925.2559 0 .0492 1.516.0886 3.585.0886 13.536 0 27.408 1.26 31.246 2.8252.685.2854 1.383.7875 1.383 1.004 0 .0985-.096.0689-.325-.1083-1.191-.9056-4.788-1.6635-10.323-2.1853-6.917-.6497-15.375-.8957-28.153-.817-14.184.0886-24.784.5316-29.6807 1.26-1.4919.2166-3.3086.2559-4.0907.0788-.782-.1674-1.6001-.5415-2.0934-.945-.5414-.4627-1.1069-1.3979-1.2031-2.0279-.0963-.5709-.2406-.5906-.3489-.0492-.2647 1.2699-1.1069 2.2346-2.4424 2.7563-.7339.2854-.9384.315-2.1897.3543-1.0587.0296-1.6964-.0098-2.707-.1673-4.7764-.7284-15.3037-1.1714-29.7773-1.26-11.3936-.0689-18.9613.1083-25.2657.5709-6.8337.5021-11.44168 1.3093-12.89746 2.2641-.49328.315-.63765.2559-.18047-.0787 2.1536-1.6243 13.05393-2.9236 27.45533-3.278 2.1175-.0492 4.8606-.0985 6.1119-.0985 2.3581 0 2.9837-.1279 1.1911-.2362-1.9611-.128-9.3363-.7481-11.8147-.9942-5.5464-.5611-10.4191-1.2502-12.4163-1.7621l-.9384-.2362.2767.2953c.9384 1.0041 1.0587 1.2502.7941 1.6439-.3008.4627-1.0829.6694-3.4771.945-5.00497.571-7.5195 1.2895-8.26544 2.3724-.33687.4823-.34891.9351-.02406 1.4765.385.6596.40906.6694 1.81672.443 4.33125-.7088 12.64488-1.388 22.23378-1.8309 19.1176-.8761 35.2636-.6104 45.4179.7481 3.4169.4626 4.7163.3347 5.8833-.5808.5294-.4233 1.1069-1.3388 1.2272-1.9589.0963-.5119.2286-.4725.3369.0787.0962.5218.5654 1.3191 1.0347 1.7818.9023.8957 2.6829 1.1517 5.3539.7776 4.4756-.6201 8.6745-.945 15.6763-1.2009 3.67-.128 20.225-.0689 24.267.0984 13.933.5611 22.752 1.2108 28.37 2.0869.722.1083 1.324.187 1.348.1673.216-.1673.782-1.2403.782-1.4667 0-.9745-1.167-1.7423-3.513-2.333-1.143-.2953-2.323-.4823-5.042-.8071-2.394-.2855-2.899-.4036-3.356-.8171-.373-.315-.241-.7678.421-1.4667.301-.315.505-.5709.445-.5611-.048 0-.517.1083-1.047.2461z"/><path d="m86.2159 13.42c-.8181.1772-1.3475.5611-1.7686 1.2699-.385.63-.8061 1.9195-.6737 2.0278.0481.0295.1804-.0492.3128-.187.9023-.9549 1.3836-1.3782 2.3701-2.0771.6016-.4331 1.1069-.8465 1.1069-.9253 0-.2658-.4692-.3051-1.3475-.1083z"/><path d="m72.3198 13.6463c-.0481.1083.0602.256.3369.4528 1.4799 1.0336 2.3461 1.7424 2.7792 2.2444.2768.315.5414.5513.6016.502.1083-.0885-.1925-1.1812-.5173-1.8506-.4452-.9056-1.504-1.5159-2.659-1.5159-.3248 0-.4932.0492-.5414.1673z"/></g></svg>

<svg width="159" height="26" viewBox="0 0 159 26" fill="none" xmlns="http://www.w3.org/2000/svg">
<path d="M79.2017 7.08066C77.6136 7.11019 76.4466 7.16925 76.4586 7.21847C76.4706 7.26769 76.7955 7.4055 77.1805 7.53347C78.2031 7.83863 78.8047 8.10441 79.1175 8.38988L79.4062 8.63597L79.1175 8.79347C78.8047 8.96081 77.4933 9.138 76.5909 9.14784C75.7848 9.14784 75.7728 9.30534 76.5909 9.38409C77.5173 9.47269 78.4077 9.82706 78.925 10.3193C79.3461 10.7228 79.7311 11.5103 79.7552 11.9927C79.7552 12.1305 79.8033 12.3372 79.8634 12.4455C79.9837 12.6916 80.0559 12.5538 80.1522 11.8746C80.3447 10.5555 81.4636 9.55144 83.0878 9.24628C83.4247 9.17738 83.7134 9.08878 83.7134 9.03956C83.7134 8.99034 83.1239 8.95097 82.402 8.95097C81.6922 8.95097 80.9342 8.90175 80.7177 8.84269L80.3327 8.73441L80.5733 8.51784C80.8019 8.32097 81.9569 7.82878 83.2683 7.38581C83.5931 7.26769 83.8217 7.13972 83.7736 7.08066C83.7375 7.02159 83.3284 6.99206 82.8352 7.00191C82.3539 7.01175 80.7297 7.05113 79.2017 7.08066Z" fill="black"/>
<path d="M85.4098 11.1362C84.5676 11.2543 84.0142 11.6284 83.533 12.406C83.0878 13.1246 82.7148 14.4634 82.9675 14.4634C83.0156 14.4634 83.2322 14.2468 83.4487 13.981C83.8337 13.5085 84.9165 12.6226 86.0234 11.8548C86.3362 11.6382 86.6009 11.402 86.625 11.3232C86.6731 11.1362 86.0715 11.0378 85.4098 11.1362Z" fill="black"/>
<path d="M73.1861 11.3136C73.1259 11.4022 73.2823 11.5892 73.6794 11.8845C75.1592 12.987 76.1337 13.8041 76.4586 14.2076C77.0481 14.9755 77.1323 14.7195 76.7233 13.4694C76.3984 12.485 75.9412 11.8944 75.2434 11.5597C74.6058 11.2545 73.3425 11.1069 73.1861 11.3136Z" fill="black"/>
<path d="M144.892 12.4554C141.62 13.2724 131.513 14.434 121.732 15.1034C120.312 15.2018 119.807 15.2707 119.807 15.3593C119.807 15.4085 121.323 15.4479 123.392 15.4479C136.928 15.4479 150.8 16.7079 154.638 18.2731C155.323 18.5585 156.021 19.0606 156.021 19.2771C156.021 19.3756 155.925 19.346 155.696 19.1688C154.505 18.2632 150.908 17.5053 145.373 16.9835C138.456 16.3338 129.998 16.0878 117.22 16.1665C103.036 16.2551 92.436 16.6981 87.5393 17.4265C86.0474 17.6431 84.2307 17.6824 83.4486 17.5053C82.6666 17.3379 81.8485 16.9638 81.3552 16.5603C80.8138 16.0976 80.2483 15.1624 80.1521 14.5324C80.0558 13.9615 79.9115 13.9418 79.8032 14.4832C79.5385 15.7531 78.6963 16.7178 77.3608 17.2395C76.6269 17.5249 76.4224 17.5545 75.1711 17.5938C74.1124 17.6234 73.4747 17.584 72.4641 17.4265C67.6877 16.6981 57.1604 16.2551 42.6868 16.1665C31.2932 16.0976 23.7255 16.2748 17.4211 16.7374C10.5874 17.2395 5.97942 18.0467 4.52364 19.0015C4.03036 19.3165 3.88599 19.2574 4.34317 18.9228C6.49677 17.2985 17.3971 15.9992 31.7985 15.6448C33.916 15.5956 36.6591 15.5463 37.9104 15.5463C40.2685 15.5463 40.8941 15.4184 39.1015 15.3101C37.1404 15.1821 29.7652 14.562 27.2868 14.3159C21.7404 13.7548 16.8677 13.0657 14.8705 12.5538L13.9321 12.3176L14.2088 12.6129C15.1472 13.617 15.2675 13.8631 15.0029 14.2568C14.7021 14.7195 13.92 14.9262 11.5258 15.2018C6.52083 15.7728 4.0063 16.4913 3.26036 17.5742C2.92349 18.0565 2.91145 18.5093 3.2363 19.0507C3.6213 19.7103 3.64536 19.7201 5.05302 19.4937C9.38427 18.7849 17.6979 18.1057 27.2868 17.6628C46.4044 16.7867 62.5504 17.0524 72.7047 18.4109C76.1216 18.8735 77.421 18.7456 78.588 17.8301C79.1174 17.4068 79.6949 16.4913 79.8152 15.8712C79.9115 15.3593 80.0438 15.3987 80.1521 15.9499C80.2483 16.4717 80.7175 17.269 81.1868 17.7317C82.0891 18.6274 83.8697 18.8834 86.5407 18.5093C91.0163 17.8892 95.2152 17.5643 102.217 17.3084C105.887 17.1804 122.442 17.2395 126.484 17.4068C140.417 17.9679 149.236 18.6176 154.854 19.4937C155.576 19.602 156.178 19.6807 156.202 19.661C156.418 19.4937 156.984 18.4207 156.984 18.1943C156.984 17.2198 155.817 16.452 153.471 15.8613C152.328 15.566 151.148 15.379 148.429 15.0542C146.035 14.7687 145.53 14.6506 145.073 14.2371C144.7 13.9221 144.832 13.4693 145.494 12.7704C145.795 12.4554 145.999 12.1995 145.939 12.2093C145.891 12.2093 145.422 12.3176 144.892 12.4554Z" fill="black"/>
<path d="M86.2159 13.42C85.3978 13.5972 84.8684 13.9811 84.4473 14.6899C84.0623 15.3199 83.6412 16.6094 83.7736 16.7177C83.8217 16.7472 83.954 16.6685 84.0864 16.5307C84.9887 15.5758 85.47 15.1525 86.4565 14.4536C87.0581 14.0205 87.5634 13.6071 87.5634 13.5283C87.5634 13.2625 87.0942 13.2232 86.2159 13.42Z" fill="black"/>
<path d="M72.3198 13.6463C72.2717 13.7546 72.38 13.9023 72.6567 14.0991C74.1366 15.1327 75.0028 15.8415 75.4359 16.3435C75.7127 16.6585 75.9773 16.8948 76.0375 16.8455C76.1458 16.757 75.845 15.6643 75.5202 14.9949C75.075 14.0893 74.0162 13.479 72.8612 13.479C72.5364 13.479 72.368 13.5282 72.3198 13.6463Z" fill="black"/>
</svg>
